packages/katcn/src/icons/svg/share-solid-1.svg

<svg xmlns="http://www.w3.org/2000/svg" fill="none" viewBox="0 0 24 24"><path fill="#000" d="M18.1 22a3.9 3.9 0 1 0 0-7.8 3.9 3.9 0 0 0 0 7.8m-7.4-11.6c.1 0 .3 0 .4-.1l4-2c.7.9 1.8 1.5 3 1.5C20.3 9.7 22 8 22 5.9S20.3 2 18.1 2c-2.1 0-3.9 1.7-3.9 3.9 0 .2 0 .4.1.6l-4.1 2c-.5.3-.7.9-.4 1.3.1.4.5.6.9.6"/><path fill="#000" d="m13.7 15-4.1-2c.1-.3.1-.6.1-1 0-2.1-1.7-3.9-3.9-3.9S2 9.9 2 12s1.7 3.9 3.9 3.9c1.1 0 2.1-.4 2.8-1.2l4.2 2.1c.1.1.3.1.4.1q.6 0 .9-.6c.2-.4 0-1-.5-1.3"/></svg>

<svg width="24" height="24" viewBox="0 0 24 24" fill="none" xmlns="http://www.w3.org/2000/svg">
<path d="M18.1 22C20.2539 22 22 20.2539 22 18.1C22 15.9461 20.2539 14.2 18.1 14.2C15.9461 14.2 14.2 15.9461 14.2 18.1C14.2 20.2539 15.9461 22 18.1 22Z" fill="black"/>
<path d="M10.7 10.4C10.8 10.4 11 10.4 11.1 10.3L15.1 8.3C15.8 9.2 16.9 9.8 18.1 9.8C20.3 9.7 22 8 22 5.9C22 3.8 20.3 2 18.1 2C16 2 14.2 3.7 14.2 5.9C14.2 6.1 14.2 6.3 14.3 6.5L10.2 8.5C9.7 8.8 9.5 9.4 9.8 9.8C9.9 10.2 10.3 10.4 10.7 10.4Z" fill="black"/>
<path d="M13.7 15L9.6 13C9.7 12.7 9.7 12.4 9.7 12C9.7 9.90001 8 8.10001 5.8 8.10001C3.6 8.10001 2 9.90001 2 12C2 14.1 3.7 15.9 5.9 15.9C7 15.9 8 15.5 8.7 14.7L12.9 16.8C13 16.9 13.2 16.9 13.3 16.9C13.7 16.9 14 16.7 14.2 16.3C14.4 15.9 14.2 15.3 13.7 15Z" fill="black"/>
</svg>
